svgs/sharp-light/sink.svg

<svg xmlns="http://www.w3.org/2000/svg" viewBox="0 0 512 512"><!--! Font Awesome Pro 6.4.0 by @fontawesome - https://fontawesome.com License - https://fontawesome.com/license (Commercial License) Copyright 2023 Fonticons, Inc. --><path d="M272 80c0-26.5 21.5-48 48-48s48 21.5 48 48v32 16h32V112 80c0-44.2-35.8-80-80-80s-80 35.8-80 80V288H160V240 224H144 48 32v32H48h80v32H16 0v32H16 128h32 80 32 80 32H496h16V288H496 384V256h80 16V224H464 368 352v16 48H272V80zM32 352v48c0 61.9 50.1 112 112 112H368c61.9 0 112-50.1 112-112V352H448v48c0 44.2-35.8 80-80 80H144c-44.2 0-80-35.8-80-80V352H32z"/></svg>

<svg xmlns="http://www.w3.org/2000/svg" viewBox="0 0 512 512"><!--! Font Awesome Pro 6.6.0 by @fontawesome - https://fontawesome.com License - https://fontawesome.com/license (Commercial License) Copyright 2024 Fonticons, Inc. --><path d="M272 80c0-26.5 21.5-48 48-48s48 21.5 48 48l0 32 0 16 32 0 0-16 0-32c0-44.2-35.8-80-80-80s-80 35.8-80 80l0 208-80 0 0-48 0-16-16 0-96 0-16 0 0 32 16 0 80 0 0 32L16 288 0 288l0 32 16 0 112 0 32 0 80 0 32 0 80 0 32 0 112 0 16 0 0-32-16 0-112 0 0-32 80 0 16 0 0-32-16 0-96 0-16 0 0 16 0 48-80 0 0-208zM32 352l0 48c0 61.9 50.1 112 112 112l224 0c61.9 0 112-50.1 112-112l0-48-32 0 0 48c0 44.2-35.8 80-80 80l-224 0c-44.2 0-80-35.8-80-80l0-48-32 0z"/></svg>
